!!!OTL-incipit: Haenschen klein geht allein in die weite Welt hinein
!!!ARE: Europa, Mitteleuropa, Deutschland, Trier, Issel
!!!SCT: D1023
!!!TXL: @@DE
!!!YEM: Copyright 1995, estate of Helmut Schaffrath.
**kern	**text
*ICvox	*
*M4/4yy	*
*k[b-]	*
*F:	*
{4cc	Hänschen
4a	.
2a	klein,
=1	=1
4b-/	geht
4g	allein,
2g}	.
=2	=2
{4f	in
4g	die
4a	weite
4b-/	.
=3	=3
4cc	Welt
4cc	hinein
2cc}	.
=4	=4
{4cc	Stock
4a	und
2a	Hut
=5	=5
4b-/	steht
4g	ihm
2g}	gut,
=6	=6
{4f	er
4a	ist
4cc	wohl
4cc	gemut.
=7	=7
2a	.
2ryy}	.
==	==
!!!AGN: Kinder - Lied
!! DVA-Signatur A 78 807
!!!ONB: ESAC (Essen Associative Code) Database: DVA
!!!AMT: simple quadruple
!!!AIN: vox
!!!EED: Helmut Schaffrath
!!!EEV: 1.0
!!!YOR: https://freidok.uni-freiburg.de/data/150373
!!!EFL: A 078 401 - 079 100 Rhein. Archiv (p. 254)
!!!ENC: Anna Maria Matuszewska
!!!EEV: 2025/04/02
*-	*-
